images/icons/bottle.svg

<svg width="42" height="85" viewBox="0 0 42 85" fill="none" xmlns="http://www.w3.org/2000/svg">
<path d="M41.8053 58.7165C41.6107 56.1377 41.8053 54.5508 40.248 52.5671C39.2746 51.3769 38.3013 50.7818 37.7173 49.1949C35.7706 44.8308 38.4959 43.6406 40.248 40.6651C41.416 38.6814 41.416 36.4994 41.416 34.119C41.2213 30.3501 41.416 26.1844 40.6373 22.6138C40.0533 19.8366 38.6906 18.8448 36.1599 18.2497C35.7706 18.2497 35.3812 18.0513 34.9919 18.0513C35.1866 15.2742 35.3812 11.1085 32.8505 9.52159C31.0985 8.92649 28.7625 8.72812 26.4264 8.72812C26.4264 7.73629 26.4264 6.94282 26.2317 5.95099C27.3998 5.55426 28.3731 4.95916 28.1784 3.76896C27.9838 0.595099 23.701 0 21.365 0C19.4183 0 17.6663 -3.54707e-07 15.9143 1.38856C14.9409 2.18203 13.3835 3.5706 13.7729 5.15753C13.9676 6.14936 14.9409 6.54609 16.1089 6.74446C16.1089 7.53792 16.1089 8.52975 16.3036 9.32322C13.9676 9.12485 11.4368 9.12486 9.68482 10.1167C6.76477 11.7036 7.34878 15.6709 7.54345 18.4481C5.40208 18.6464 3.06605 19.0432 1.89803 21.2252C0.535341 23.804 0.924681 28.168 1.11935 30.9452C1.31402 34.7141 0.730011 37.888 2.87138 41.0618C4.0394 42.8471 5.59676 44.0373 5.40209 46.4177C5.40209 48.9965 3.84473 50.5834 2.28737 52.5671C0.924682 54.5508 0.535342 56.1377 0.340673 58.5181C-0.0486669 62.2871 -0.0486676 66.2544 0.146002 70.0233C0.146002 73.5939 -0.438007 78.3547 0.730012 81.727C1.50869 83.909 2.87138 84.3057 4.81808 84.5041C10.0742 85.2976 15.5249 84.9008 20.9757 84.9008C25.8424 84.9008 30.5145 84.9008 35.3812 84.9008C37.5226 84.9008 39.4693 84.7025 40.4426 82.9172C41.8053 80.5368 41.416 76.1727 41.6107 73.5939C42.1947 68.4364 42 63.6756 41.8053 58.7165ZM17.2769 2.77713C18.6396 1.7853 20.0023 1.7853 21.5597 1.7853C22.533 1.7853 23.5064 1.58693 24.285 1.98366C24.4797 2.3804 26.4264 3.5706 26.2317 3.96733C26.0371 4.76079 22.1437 4.36406 21.365 4.36406C19.8076 4.36406 18.2503 4.56243 16.6929 4.56243C16.4983 4.56243 15.7196 4.56243 15.7196 4.56243C15.5249 4.16569 17.0823 2.9755 17.2769 2.77713ZM18.0556 6.54609C19.4183 6.54609 20.5863 6.34772 21.365 6.14936C21.949 6.14936 23.117 6.14936 24.285 6.14936C24.285 6.54609 24.285 7.14119 24.285 7.53792C24.285 7.93466 24.285 8.33139 24.285 8.72812C22.533 8.92649 20.781 9.12486 19.4183 9.12486C19.029 9.12486 18.6396 9.12486 18.2503 9.12486C18.2503 8.33139 18.0556 7.53792 18.0556 6.54609ZM12.4102 11.5053C14.9409 11.3069 17.6663 11.3069 20.197 11.1085C22.7277 11.1085 25.4531 10.9102 27.9838 11.1085C33.0452 11.1085 33.0452 13.8856 33.0452 18.0513C29.3465 17.6546 25.4531 17.6546 21.7543 17.4562C17.6663 17.4562 13.5782 17.4562 9.49015 17.853C9.29548 15.0758 9.10081 11.902 12.4102 11.5053ZM40.0533 71.0152C40.0533 74.189 40.4426 79.7433 37.9119 81.727C35.3812 83.7106 30.3198 82.7188 27.3998 82.7188C23.5064 82.7188 19.613 82.9172 15.7196 82.9172C12.2155 82.9172 4.23407 84.1074 2.48204 79.9417C1.50869 77.5613 2.0927 73.1972 2.0927 70.6184C2.0927 67.4446 1.89803 64.0723 2.0927 60.8985C2.28737 57.5263 2.67671 55.5426 4.42874 52.9638C5.59676 51.3769 6.76477 49.79 7.15411 47.8063C7.54345 45.6243 7.15411 43.6406 5.98609 41.8553C5.01275 40.2684 4.0394 39.6733 3.45539 37.888C2.87138 35.706 3.06605 33.3256 3.06605 31.1435C2.87138 26.5811 2.48204 21.4236 7.93279 20.4317C12.6049 19.6383 17.0823 19.6383 21.7543 19.6383C25.2584 19.8366 28.7625 20.035 32.4612 20.2334C34.7972 20.4317 37.3279 20.2334 38.6906 23.0105C39.2746 24.3991 39.08 26.3827 39.2746 27.9697C39.4693 30.5484 39.664 33.3256 39.664 35.9043C39.664 39.0782 38.1066 40.2684 36.5492 42.6488C34.4079 45.8226 34.9919 49.5916 37.5226 52.3687C38.1066 53.1622 39.08 53.7573 39.664 54.5508C40.4426 56.1377 40.0533 58.7165 40.248 60.5018C40.0533 64.0723 40.248 67.6429 40.0533 71.0152Z" fill="#2B3541"/>
<path d="M14.1621 44.2357C19.0289 44.6325 23.8956 44.6325 28.7624 44.0374C29.9304 43.839 29.9304 42.0537 28.7624 42.0537C23.8956 42.6488 19.0289 42.6488 14.1621 42.2521C12.9941 42.2521 12.9941 44.0374 14.1621 44.2357Z" fill="#2B3541"/>
<path d="M29.3464 50.1867C24.0903 48.9965 18.6396 48.7982 13.3835 49.9884C12.2155 50.1867 12.6048 52.1704 13.9675 51.7737C19.0289 50.7818 23.8957 50.7818 28.9571 51.972C29.9304 52.3688 30.5144 50.5835 29.3464 50.1867Z" fill="#2B3541"/>
<path d="M6.76495 24.2008C4.42892 26.1845 5.2076 29.3583 5.2076 32.1355C5.2076 33.3256 7.15429 33.3256 7.15429 32.1355C7.15429 30.1518 6.37561 26.9779 8.12764 25.5894C9.10098 24.7959 7.7383 23.4073 6.76495 24.2008Z" fill="#2B3541"/>
<path d="M9.87943 22.0186C8.71141 22.0186 8.71141 24.0022 9.87943 24.0022C11.2421 24.0022 11.2421 22.0186 9.87943 22.0186Z" fill="#2B3541"/>
</svg>

<svg xmlns="http://www.w3.org/2000/svg" width="42" height="85" fill="none"><path fill="#2B3541" d="M41.805 58.717c-.194-2.58 0-4.166-1.557-6.15-.973-1.19-1.947-1.785-2.53-3.372-1.947-4.364.778-5.554 2.53-8.53 1.168-1.984 1.168-4.166 1.168-6.546-.195-3.769 0-7.935-.779-11.505-.584-2.777-1.946-3.77-4.477-4.364-.39 0-.779-.199-1.168-.199.195-2.777.39-6.942-2.142-8.53-1.752-.595-4.088-.793-6.424-.793 0-.992 0-1.785-.194-2.777 1.168-.397 2.141-.992 1.946-2.182C27.984.595 23.701 0 21.365 0c-1.947 0-3.699 0-5.45 1.389-.974.793-2.531 2.182-2.142 3.769.195.991 1.168 1.388 2.336 1.586 0 .794 0 1.786.195 2.58-2.336-.2-4.867-.2-6.62.793-2.92 1.587-2.335 5.554-2.14 8.331-2.142.198-4.478.595-5.646 2.777-1.363 2.579-.973 6.943-.779 9.72.195 3.77-.389 6.943 1.752 10.117 1.168 1.785 2.726 2.975 2.531 5.356 0 2.578-1.557 4.165-3.115 6.15C.925 54.55.535 56.137.341 58.517c-.39 3.77-.39 7.736-.195 11.505 0 3.57-.584 8.332.584 11.704.779 2.182 2.141 2.579 4.088 2.777 5.256.794 10.707.397 16.158.397H35.38c2.142 0 4.088-.198 5.062-1.984 1.362-2.38.973-6.744 1.168-9.323.584-5.158.389-9.918.194-14.877ZM17.277 2.777c1.363-.992 2.725-.992 4.283-.992.973 0 1.946-.198 2.725.199.195.396 2.141 1.587 1.947 1.983-.195.794-4.088.397-4.867.397-1.557 0-3.115.198-4.672.198h-.973c-.195-.396 1.362-1.587 1.557-1.785Zm.779 3.77c1.362 0 2.53-.2 3.309-.398h2.92V8.728c-1.752.198-3.504.397-4.867.397H18.25c0-.794-.194-1.587-.194-2.579Zm-5.646 4.958c2.53-.198 5.256-.198 7.787-.397 2.53 0 5.256-.198 7.787 0 5.061 0 5.061 2.778 5.061 6.943-3.699-.396-7.592-.396-11.29-.595-4.089 0-8.177 0-12.265.397-.195-2.777-.39-5.951 2.92-6.348Zm27.643 59.51c0 3.174.39 8.728-2.141 10.712-2.53 1.984-7.592.992-10.512.992-3.894 0-7.787.198-11.68.198-3.505 0-11.486 1.19-13.238-2.975-.973-2.38-.39-6.745-.39-9.324 0-3.173-.194-6.546 0-9.72.195-3.372.585-5.355 2.337-7.934 1.168-1.587 2.336-3.174 2.725-5.158.39-2.182 0-4.165-1.168-5.95-.973-1.588-1.947-2.183-2.53-3.968-.585-2.182-.39-4.562-.39-6.744-.195-4.563-.584-9.72 4.867-10.712 4.672-.794 9.15-.794 13.821-.794 3.504.199 7.008.397 10.707.595 2.336.199 4.867 0 6.23 2.777.584 1.39.389 3.373.584 4.96.194 2.578.389 5.356.389 7.934 0 3.174-1.557 4.364-3.115 6.745-2.141 3.174-1.557 6.943.974 9.72.584.793 1.557 1.388 2.141 2.182.779 1.587.39 4.166.584 5.95-.195 3.571 0 7.142-.195 10.514Z"/><path fill="#2B3541" d="M14.162 44.236c4.867.397 9.734.397 14.6-.199 1.168-.198 1.168-1.983 0-1.983-4.866.595-9.733.595-14.6.198-1.168 0-1.168 1.785 0 1.984ZM29.346 50.187c-5.256-1.19-10.706-1.389-15.963-.199-1.167.199-.778 2.182.585 1.786 5.06-.992 9.928-.992 14.99.198.972.397 1.556-1.389.388-1.785ZM6.765 24.2c-2.336 1.985-1.557 5.158-1.557 7.936 0 1.19 1.946 1.19 1.946 0 0-1.984-.778-5.158.974-6.547.973-.793-.39-2.182-1.363-1.388ZM9.88 22.019c-1.169 0-1.169 1.983 0 1.983 1.362 0 1.362-1.983 0-1.983Z"/></svg>
